X:1
T:Dagg faller
T:Alice Tegnér (1864-1943)
T:Dagg faller
T:©PA Aglert Edition may be freely distributed, duplicated, performed and recorded
T:©PA Aglert Edition may be freely distributed, duplicated, performed and recorded
T:©PA Aglert Edition may be freely distributed, duplicated, performed and recorded
C:Alice Tegnér (1864-1943)
Z:©PA Aglert
Z:Edition may be freely distributed, duplicated, performed and recorded
%%score [ 1 2 3 4 ]
L:1/8
Q:1/4=89
M:6/8
K:E
V:1 treble nm="S"
V:2 treble nm="A"
V:3 treble-8 nm="T"
V:4 bass nm="B"
V:1
"^Allegretto moderato"!pp! B3 e3- | e3 e2 z | ecB G2 F | c6- | c6- | c2 z!p! FGA | G2 F F3- | %7
w: Dagg fal-|* ler,|fal- ler på ro- sor|små|_|* Det är blott|pär- lor grå,|
 F z z cde | (G2 F) (E2 F) | G3 F3 | B3- B z!pp! B | B6 | B6"^cresc." |!<(! B6-!<)! | (B2 c) B3 | %15
w: _ det är blott|pär- * lor, _|pär- lor|grå. _ Men|so-|len|ski-|* * ner,|
 z2 z!mf! B3 |!<(! (2:3:2cd (2:3:2e!<)!f!f! | _a6 | _e2 z =c3 | !>!.=c2 .c !tenuto!c3- | %20
w: när|so- len på dem|ski-|ner, då|gnist- ra de|
 c2 z =c2 c |!<(! ((_c3!<)! [c_d]3)) | (([_B_e]3 [^A!courtesy!^d]2)) !courtesy!^c | %23
w: _ som ru-|bi- *|ner, _ då|
 !>!.c2 .B !tenuto!f3- | f2 z"^dolce" g2 d | f6- | f6 |!>(! e6!>)! | z6 |!pp! (c6 | %30
w: gnist- ra de|_ som ru-|bi-||ner,||som|
!<(! d3)!<)!"^calando"!>(! ^A3!>)! | (c3 B3) |!pp! B3- B2 z |] %33
w: _ ru-|bi- *|ner. _|
V:2
!p! E3 GFE | G2 E G2 z | G3 =D2 D | (C E2) E3 | E6- | E2 z!p! EEE | E2 E E3- | E2 z E3 | E3 E3 | %9
w: Dagg fal- ler på|ro- sor små,|fal- ler på|ro- * sor|små|_ Det är blott|pär- lor grå,|_ blott|pär- lor,|
 D3 D3 | (D3 B,) z!pp! B, | B,3!<(! C3!<)! |!<(! DE!<)!F"^cresc." G2 E | (D3 F3 | %14
w: pär- lor|grå. _ Men|so- len|so- * len på dem|ski- *|
!<(! A3)!<)!!>(! F3!>)! |!mf! G6- | G3 G3!f! | _A6 | _A2 z A3 | !>!._A2 ._G !tenuto!G3- | %20
w: * ner,|so-|* len|ski-|ner, då|gnist- ra de|
 G2 z _G2 _A |!<(! (_G3!<)! =F3) | (_F3 !courtesy!=E2) ^A | !>!.!courtesy!=A2 .A !tenuto!A3- | %24
w: _ som ru-|bi- *|ner, _ då|gnist- ra de|
 A3 z2 z | z2 z!<(! A2 A!<)! | ([Ac]3 [AB]3) |!>(! G6!>)! | z6 |!pp! ^^F6- |!<(! F3!<)! ^^F3 | %31
w: _|som ru-|bi- *|ner,||som|_ ru-|
!>(! G6!>)! |!pp! G3- G2 z |] %33
w: bi-|ner. _|
V:3
!p! G3 BAG | ^B3 c3 | =d3- d2 z | (fec) A2 F | F3 E3 | A2 z!p! ccc | c2 c c3- | c2 z ^A3 | %8
w: Dagg fal- ler på|ro- sor|små _|fal- * * ler på|ro- sor|små, Det är blott|pär- lor grå,|_ blott|
 ^A3 =A3 | A3 c3 | (B3 A) z!pp! A | G6 | G3"^cresc." B2 G |!<(! A6!<)! | d6 |!mf! (e3 B3) | B6!f! | %17
w: pär- lor,|pär- lor|grå. _ Men|so-|len på dem|ski-|ner,|so- *|len|
 =c6 | =c2 z _e3 | !>!.=f2 ._e !tenuto!_a3- | a2 z _e2 =f |!<(! (_e3!<)! _d3) | %22
w: ski-|ner, då|gnist- ra de|_ som ru-|bi- *|
 (_g3 !courtesy!^f2) !courtesy!=e | !>!.e2 .d !tenuto!d3- | d3 z2 z | z2 z d2!<(! d!<)! | d6 | %27
w: ner, _ då|gnist- ra de|_|som ru-|bi-|
!>(! B6!>)! | z6 |!pp! ^A6- |!<(! A3!<)! c3 |!>(! B6!>)! |!pp! e3- e2 z |] %33
w: ner,||som|_ ru-|bi-|ner. _|
V:4
!pp! E,3 E,3- | E,3 E,3 |!>(! E,3!>)! E,2 E, | A,,6 | A,,6- | A,,2 z!p! A,G,F, | G,2 A, (A,3 | %7
w: Dagg fal-|* ler,|fal- ler på|ro-|sor|_ Det är blott|pär- lor grå,|
 ^A,2) z F,3 | C,3 =C,3 | B,,3- B,,2 z | B,,G,F, D,2!pp! B,, | E,6 | E,3"^cresc." E,3 | %13
w: _ blott|pär- lor|grå, _|Det är blott pär- lor|grå.|so- len|
!<(! F,6!<)! | B,6 |!mf! E,6 | E,6!f! | _E,6 | _A,2 z A,3 | !>!._A,2 .A, !tenuto!A,3- | %20
w: ski-|ner,|so-|len|ski-|ner, då|gnist- ra de|
 A,2 z _A,2 A, |!<(! _D3-!<)! D3 | (_G,3 !courtesy!^F,2) F, | !>!.B,2 .B, !tenuto!B,3- | B,3 z2 z | %25
w: _ som ru-|bi- *|ner, _ då|gnist- ra de|_|
 z2 z!<(! B,,2 B,!<)! | B,6 |!>(! E,6!>)! |!pp! E,6- | E,6 |!<(! E,6!<)! |!>(! E,6!>)! | %32
w: som ru-|bi-|ner,|Dagg|_|på|ro-|
!pp! E,3- E,2 z |] %33
w: sor. _|

